packages/assets/static/images/icons/bold/catalog--bold.svg

<svg width="24" height="24" viewBox="0 0 24 24" xmlns="http://www.w3.org/2000/svg">
<path d="M22.0761 9.916H15.6641C15.4283 9.916 15.1998 9.99152 15.0112 10.1318L14.1815 10.7484H9.89228L8.79504 10.0769C8.62275 9.97174 8.42506 9.916 8.22285 9.916H2.23157C1.63036 9.916 1.1434 10.3987 1.1434 10.9948V19.677C1.1434 20.273 1.63036 20.7558 2.23157 20.7558H22.0752C22.6764 20.7558 23.1634 20.273 23.1634 19.677V10.9948C23.1634 10.3987 22.6774 9.916 22.0761 9.916ZM20.988 18.5982H3.31974V12.0735H7.91362L9.01086 12.7451C9.18315 12.8502 9.38084 12.906 9.58306 12.906H14.5442C14.78 12.906 15.0085 12.8305 15.1971 12.6902L16.0268 12.0735H20.988V18.5982Z"/>
<path d="M5.09799 5.31329H19.2097C19.8109 5.31329 20.2979 4.83054 20.2979 4.23452C20.2979 3.63851 19.8109 3.15576 19.2097 3.15576H5.09799C4.49678 3.15576 4.00982 3.63851 4.00982 4.23452C4.00982 4.83054 4.49678 5.31329 5.09799 5.31329Z"/>
<path d="M3.79944 8.72217H20.5083C21.1095 8.72217 21.5964 8.23943 21.5964 7.64341C21.5964 7.04739 21.1095 6.56465 20.5083 6.56465H3.79944C3.19823 6.56465 2.71127 7.04739 2.71127 7.64341C2.71127 8.23943 3.19823 8.72217 3.79944 8.72217Z"/>
<path d="M8.52663 14.6473C7.92541 14.6473 7.43846 15.13 7.43846 15.726C7.43846 16.3221 7.92541 16.8048 8.52663 16.8048H15.7811C16.3823 16.8048 16.8693 16.3221 16.8693 15.726C16.8693 15.13 16.3823 14.6473 15.7811 14.6473H8.52663Z"/>
</svg>

<svg viewBox="0 0 24 24" xmlns="http://www.w3.org/2000/svg" aria-hidden="true" fill="currentColor"><path d="M22.076 9.916h-6.412c-.236 0-.464.076-.653.216l-.83.616H9.893l-1.097-.671a1.1 1.1 0 0 0-.572-.161H2.232c-.602 0-1.089.483-1.089 1.079v8.682c0 .596.487 1.079 1.089 1.079h19.843c.601 0 1.088-.483 1.088-1.079v-8.682c0-.596-.486-1.079-1.087-1.079m-1.088 8.682H3.32v-6.524h4.594l1.097.671c.172.105.37.161.572.161h4.961c.236 0 .464-.075.653-.216l.83-.617h4.961zM5.098 5.313H19.21c.6 0 1.088-.482 1.088-1.078s-.487-1.08-1.088-1.08H5.098c-.601 0-1.088.484-1.088 1.08s.487 1.078 1.088 1.078m-1.299 3.41h16.71c.6 0 1.087-.484 1.087-1.08s-.486-1.078-1.088-1.078H3.8c-.6 0-1.088.482-1.088 1.078s.487 1.08 1.088 1.08"/><path d="M8.527 14.647c-.602 0-1.089.483-1.089 1.079s.487 1.079 1.089 1.079h7.254c.601 0 1.088-.483 1.088-1.079s-.487-1.079-1.088-1.079z"/></svg>
